icons/gbl.svg

<svg width="16" height="16" viewBox="0 0 16 16" fill="none" xmlns="http://www.w3.org/2000/svg">
<path fill-rule="evenodd" clip-rule="evenodd" d="M6.5 3H13V4.5H10.7929L9.5 5.79289V10.1338C9.2011 10.3067 9 10.6299 9 11C9 11.5523 9.44772 12 10 12C10.5523 12 11 11.5523 11 11C11 10.6299 10.7989 10.3067 10.5 10.1338V6.20711L11.2071 5.5H13V13H3V3H5.5V5.20711L6.5 6.20711V7.13378C6.2011 7.30669 6 7.62986 6 8C6 8.55228 6.44772 9 7 9C7.55228 9 8 8.55228 8 8C8 7.62986 7.7989 7.30669 7.5 7.13378V5.79289L6.5 4.79289V3ZM2 3.2C2 2.53726 2.44772 2 3 2H13C13.5523 2 14 2.53726 14 3.2V12.8C14 13.4627 13.5523 14 13 14H3C2.44772 14 2 13.4627 2 12.8V3.2ZM5 12C5.55228 12 6 11.5523 6 11C6 10.4477 5.55228 10 5 10C4.62986 10 4.30669 10.2011 4.13378 10.5H3V11.5H4.13378C4.30669 11.7989 4.62986 12 5 12Z" fill="#3AC59B"/>
</svg>

<svg xmlns="http://www.w3.org/2000/svg" width="16" height="16" fill="none"><path fill="#3AC59B" fill-rule="evenodd" d="M6.5 3H13v1.5h-2.207L9.5 5.793v4.34a1 1 0 1 0 1 0V6.208l.707-.707H13V13H3V3h2.5v2.207l1 1v.927a1 1 0 1 0 1 0V5.793l-1-1V3ZM2 3.2C2 2.537 2.448 2 3 2h10c.552 0 1 .537 1 1.2v9.6c0 .663-.448 1.2-1 1.2H3c-.552 0-1-.537-1-1.2V3.2ZM5 12a1 1 0 1 0-.866-1.5H3v1h1.134A1 1 0 0 0 5 12Z" clip-rule="evenodd"/></svg>
